source/images/levelthree-icon.svg

<svg height="87" viewBox="0 0 74 87" width="74" xmlns="http://www.w3.org/2000/svg"><g fill="none" fill-rule="evenodd"><rect fill="#fff" fill-rule="evenodd" height="55.273684" rx="5" width="56.851728"/><rect height="51.273684" rx="5" stroke="#44525e" stroke-width="4" width="52.851728" x="2" y="2"/><path d="m0 5.7426191c0-2.76461429 2.23446755-5.00577699 5.00841312-5.00577699h46.98317378c2.7660702 0 5.0084131 2.23870396 5.0084131 5.00577699v6.2573809h-57z" fill="#44525e"/><circle cx="6" cy="6" fill="#fff" r="2"/><circle cx="13" cy="6" fill="#fff" r="2"/><g transform="translate(22 15)"><path d="m4.65662976 7.19621988h-3.94991772l1.30575288 3.03415922h8.00635898l-8.46557011-10.2303791zm7.37332214 18.58683262-1.307279-3.0357982h-1.83455529l-.03845836-.0907387-2.53611516-5.8789442h-1.4763737l2.57503136 5.9696829h-4.69619303l8.46694358 10.2324651-3.10429159-7.1966669z" fill="#eacc2f"/><path d="m9.37894729 16.1800507-2.32664046-5.3883458h-5.79679675c-.44263305 0-.68681828 0-.88715416.6260683-.23820806.7469673-.34417143 2.3054032-.34417143 5.050864 0 2.7454705.10596337 4.3036209.34417143 5.0504307.20033588.6257532.44452111.6257532.88715416.6257532h5.25636845l-2.57676246-5.967803h2.12160968l-1.28682636-2.9793329h.64261555l1.28492821 2.9823655zm3.82063811 3.5595384h-4.96295245l1.03820874 2.405232h3.92474371c.0978053 0 .3235037-.1167638.3235037-1.2013902 0-1.0864478-.2256984-1.2038418-.3235037-1.2038418zm0-6.5419039c.0978053 0 .3235037-.1182998.3235037-1.2029261 0-1.0859753-.2256984-1.2030542-.3235037-1.2030542h-5.50463273l1.03820875 2.4059803zm.4595447 3.5595384h-6.71088848l1.03916792 2.4058227h5.67172056c.0975126 0 .3238168-.1173841.3238168-1.202611 0-1.0855125-.2263042-1.2032117-.3238168-1.2032117zm0-2.982395h-4.67642218l1.03884478 2.4052221h3.6375774c.0975126 0 .3238168-.1179749.3238168-1.2032018 0-1.0846362-.2263042-1.2020203-.3238168-1.2020203z" fill="#44525e"/></g><g transform="translate(8 15)"><rect fill="#fff" fill-rule="evenodd" height="55.273684" rx="5" width="56.851728"/><rect height="51.273684" rx="5" stroke="#44525e" stroke-width="4" width="52.851728" x="2" y="2"/><path d="m0 5.7426191c0-2.76461429 2.23446755-5.00577699 5.00841312-5.00577699h46.98317378c2.7660702 0 5.0084131 2.23870396 5.0084131 5.00577699v6.2573809h-57z" fill="#44525e"/><circle cx="6" cy="6" fill="#fff" r="2"/><circle cx="13" cy="6" fill="#fff" r="2"/><g transform="translate(22 15)"><path d="m4.65662976 7.19621988h-3.94991772l1.30575288 3.03415922h8.00635898l-8.46557011-10.2303791zm7.37332214 18.58683262-1.307279-3.0357982h-1.83455529l-.03845836-.0907387-2.53611516-5.8789442h-1.4763737l2.57503136 5.9696829h-4.69619303l8.46694358 10.2324651-3.10429159-7.1966669z" fill="#eacc2f"/><path d="m9.37894729 16.1800507-2.32664046-5.3883458h-5.79679675c-.44263305 0-.68681828 0-.88715416.6260683-.23820806.7469673-.34417143 2.3054032-.34417143 5.050864 0 2.7454705.10596337 4.3036209.34417143 5.0504307.20033588.6257532.44452111.6257532.88715416.6257532h5.25636845l-2.57676246-5.967803h2.12160968l-1.28682636-2.9793329h.64261555l1.28492821 2.9823655zm3.82063811 3.5595384h-4.96295245l1.03820874 2.405232h3.92474371c.0978053 0 .3235037-.1167638.3235037-1.2013902 0-1.0864478-.2256984-1.2038418-.3235037-1.2038418zm0-6.5419039c.0978053 0 .3235037-.1182998.3235037-1.2029261 0-1.0859753-.2256984-1.2030542-.3235037-1.2030542h-5.50463273l1.03820875 2.4059803zm.4595447 3.5595384h-6.71088848l1.03916792 2.4058227h5.67172056c.0975126 0 .3238168-.1173841.3238168-1.202611 0-1.0855125-.2263042-1.2032117-.3238168-1.2032117zm0-2.982395h-4.67642218l1.03884478 2.4052221h3.6375774c.0975126 0 .3238168-.1179749.3238168-1.2032018 0-1.0846362-.2263042-1.2020203-.3238168-1.2020203z" fill="#44525e"/></g></g><g transform="translate(17 31)"><rect fill="#fff" fill-rule="evenodd" height="55.273684" rx="5" width="56.851728"/><rect height="51.273684" rx="5" stroke="#44525e" stroke-width="4" width="52.851728" x="2" y="2"/><path d="m0 5.7426191c0-2.76461429 2.23446755-5.00577699 5.00841312-5.00577699h46.98317378c2.7660702 0 5.0084131 2.23870396 5.0084131 5.00577699v6.2573809h-57z" fill="#44525e"/><circle cx="6" cy="6" fill="#fff" r="2"/><circle cx="13" cy="6" fill="#fff" r="2"/><g transform="translate(22 15)"><path d="m4.65662976 7.19621988h-3.94991772l1.30575288 3.03415922h8.00635898l-8.46557011-10.2303791zm7.37332214 18.58683262-1.307279-3.0357982h-1.83455529l-.03845836-.0907387-2.53611516-5.8789442h-1.4763737l2.57503136 5.9696829h-4.69619303l8.46694358 10.2324651-3.10429159-7.1966669z" fill="#eacc2f"/><path d="m9.37894729 16.1800507-2.32664046-5.3883458h-5.79679675c-.44263305 0-.68681828 0-.88715416.6260683-.23820806.7469673-.34417143 2.3054032-.34417143 5.050864 0 2.7454705.10596337 4.3036209.34417143 5.0504307.20033588.6257532.44452111.6257532.88715416.6257532h5.25636845l-2.57676246-5.967803h2.12160968l-1.28682636-2.9793329h.64261555l1.28492821 2.9823655zm3.82063811 3.5595384h-4.96295245l1.03820874 2.405232h3.92474371c.0978053 0 .3235037-.1167638.3235037-1.2013902 0-1.0864478-.2256984-1.2038418-.3235037-1.2038418zm0-6.5419039c.0978053 0 .3235037-.1182998.3235037-1.2029261 0-1.0859753-.2256984-1.2030542-.3235037-1.2030542h-5.50463273l1.03820875 2.4059803zm.4595447 3.5595384h-6.71088848l1.03916792 2.4058227h5.67172056c.0975126 0 .3238168-.1173841.3238168-1.202611 0-1.0855125-.2263042-1.2032117-.3238168-1.2032117zm0-2.982395h-4.67642218l1.03884478 2.4052221h3.6375774c.0975126 0 .3238168-.1179749.3238168-1.2032018 0-1.0846362-.2263042-1.2020203-.3238168-1.2020203z" fill="#44525e"/></g></g></g></svg>

<?xml version="1.0" encoding="UTF-8"?>
<svg width="74px" height="87px" viewBox="0 0 74 87" version="1.1" xmlns="http://www.w3.org/2000/svg" xmlns:xlink="http://www.w3.org/1999/xlink">
    <!-- Generator: Sketch 44 (41411) - https://www.sketchapp.com -->
    <title>Group 5</title>
    <desc>Created with Sketch.</desc>
    <defs>
        <rect id="path-1" x="0" y="0" width="56.851728" height="55.2736842" rx="5"></rect>
        <rect id="path-2" x="0" y="0" width="56.851728" height="55.2736842" rx="5"></rect>
        <rect id="path-3" x="0" y="0" width="56.851728" height="55.2736842" rx="5"></rect>
    </defs>
    <g id="Page-1" stroke="none" stroke-width="1" fill="none" fill-rule="evenodd">
        <g id="Artboard-2" transform="translate(-235.000000, -759.000000)">
            <g id="Group-5" transform="translate(235.000000, 759.000000)">
                <g id="Group-11">
                    <g id="pantheon-site-2">
                        <g id="Group-17">
                            <g id="Rectangle-10">
                                <use fill="#FFFFFF" fill-rule="evenodd" xlink:href="#path-1"></use>
                                <rect stroke="#44525E" stroke-width="4" x="2" y="2" width="52.851728" height="51.2736842" rx="5"></rect>
                            </g>
                            <path d="M0,5.7426191 C0,2.97800481 2.23446755,0.736842105 5.00841312,0.736842105 L51.9915869,0.736842105 C54.7576571,0.736842105 57,2.97554607 57,5.7426191 L57,12 L0,12 L0,5.7426191 Z" id="Rectangle-11" fill="#44525E"></path>
                            <circle id="Oval-Copy" fill="#FFFFFF" cx="6" cy="6" r="2"></circle>
                            <circle id="Oval-Copy-3" fill="#FFFFFF" cx="13" cy="6" r="2"></circle>
                            <g id="Group-12-Copy" transform="translate(22.000000, 15.000000)">
                                <path d="M4.65662976,7.19621988 L0.706712044,7.19621988 L2.01246492,10.2303791 L10.0188239,10.2303791 L1.55325379,0 L4.65662976,7.19621988 Z M12.0299519,25.7830525 L10.7226729,22.7472543 L8.88811761,22.7472543 L8.84965925,22.6565156 L6.31354409,16.7775714 L4.83717039,16.7775714 L7.41220175,22.7472543 L2.71600872,22.7472543 L11.1829523,32.9797194 L8.07866071,25.7830525 L12.0299519,25.7830525 L12.0299519,25.7830525 Z" id="Fill-1" fill="#EACC2F"></path>
                                <path d="M9.37894729,16.1800507 L7.05230683,10.7917049 L1.25551008,10.7917049 C0.812877029,10.7917049 0.568691802,10.7917049 0.368355921,11.4177732 C0.130147856,12.1647405 0.0241844921,13.7231764 0.0241844921,16.4686372 C0.0241844921,19.2141077 0.130147856,20.7722581 0.368355921,21.5190679 C0.568691802,22.1448211 0.812877029,22.1448211 1.25551008,22.1448211 L6.51187853,22.1448211 L3.93511607,16.1770181 L6.05672575,16.1770181 L4.76989939,13.1976852 L5.41251494,13.1976852 L6.69744315,16.1800507 L9.37894729,16.1800507 Z M13.1995854,19.7395891 L8.23663295,19.7395891 L9.27484169,22.1448211 L13.1995854,22.1448211 C13.2973907,22.1448211 13.5230891,22.0280573 13.5230891,20.9434309 C13.5230891,19.8569831 13.2973907,19.7395891 13.1995854,19.7395891 L13.1995854,19.7395891 Z M13.1995854,13.1976852 C13.2973907,13.1976852 13.5230891,13.0793854 13.5230891,11.9947591 C13.5230891,10.9087838 13.2973907,10.7917049 13.1995854,10.7917049 L7.69495267,10.7917049 L8.73316142,13.1976852 L13.1995854,13.1976852 L13.1995854,13.1976852 Z M13.6591301,16.7572236 L6.94824162,16.7572236 L7.98740954,19.1630463 L13.6591301,19.1630463 C13.7566427,19.1630463 13.9829469,19.0456622 13.9829469,17.9604353 C13.9829469,16.8749228 13.7566427,16.7572236 13.6591301,16.7572236 L13.6591301,16.7572236 Z M13.6591301,13.7748286 L8.98270792,13.7748286 L10.0215527,16.1800507 L13.6591301,16.1800507 C13.7566427,16.1800507 13.9829469,16.0620758 13.9829469,14.9768489 C13.9829469,13.8922127 13.7566427,13.7748286 13.6591301,13.7748286 L13.6591301,13.7748286 Z" id="Fill-2" fill="#44525E"></path>
                            </g>
                        </g>
                    </g>
                </g>
                <g id="Group-11" transform="translate(8.000000, 15.000000)">
                    <g id="pantheon-site-2">
                        <g id="Group-17">
                            <g id="Rectangle-10">
                                <use fill="#FFFFFF" fill-rule="evenodd" xlink:href="#path-2"></use>
                                <rect stroke="#44525E" stroke-width="4" x="2" y="2" width="52.851728" height="51.2736842" rx="5"></rect>
                            </g>
                            <path d="M0,5.7426191 C0,2.97800481 2.23446755,0.736842105 5.00841312,0.736842105 L51.9915869,0.736842105 C54.7576571,0.736842105 57,2.97554607 57,5.7426191 L57,12 L0,12 L0,5.7426191 Z" id="Rectangle-11" fill="#44525E"></path>
                            <circle id="Oval-Copy" fill="#FFFFFF" cx="6" cy="6" r="2"></circle>
                            <circle id="Oval-Copy-3" fill="#FFFFFF" cx="13" cy="6" r="2"></circle>
                            <g id="Group-12-Copy" transform="translate(22.000000, 15.000000)">
                                <path d="M4.65662976,7.19621988 L0.706712044,7.19621988 L2.01246492,10.2303791 L10.0188239,10.2303791 L1.55325379,0 L4.65662976,7.19621988 Z M12.0299519,25.7830525 L10.7226729,22.7472543 L8.88811761,22.7472543 L8.84965925,22.6565156 L6.31354409,16.7775714 L4.83717039,16.7775714 L7.41220175,22.7472543 L2.71600872,22.7472543 L11.1829523,32.9797194 L8.07866071,25.7830525 L12.0299519,25.7830525 L12.0299519,25.7830525 Z" id="Fill-1" fill="#EACC2F"></path>
                                <path d="M9.37894729,16.1800507 L7.05230683,10.7917049 L1.25551008,10.7917049 C0.812877029,10.7917049 0.568691802,10.7917049 0.368355921,11.4177732 C0.130147856,12.1647405 0.0241844921,13.7231764 0.0241844921,16.4686372 C0.0241844921,19.2141077 0.130147856,20.7722581 0.368355921,21.5190679 C0.568691802,22.1448211 0.812877029,22.1448211 1.25551008,22.1448211 L6.51187853,22.1448211 L3.93511607,16.1770181 L6.05672575,16.1770181 L4.76989939,13.1976852 L5.41251494,13.1976852 L6.69744315,16.1800507 L9.37894729,16.1800507 Z M13.1995854,19.7395891 L8.23663295,19.7395891 L9.27484169,22.1448211 L13.1995854,22.1448211 C13.2973907,22.1448211 13.5230891,22.0280573 13.5230891,20.9434309 C13.5230891,19.8569831 13.2973907,19.7395891 13.1995854,19.7395891 L13.1995854,19.7395891 Z M13.1995854,13.1976852 C13.2973907,13.1976852 13.5230891,13.0793854 13.5230891,11.9947591 C13.5230891,10.9087838 13.2973907,10.7917049 13.1995854,10.7917049 L7.69495267,10.7917049 L8.73316142,13.1976852 L13.1995854,13.1976852 L13.1995854,13.1976852 Z M13.6591301,16.7572236 L6.94824162,16.7572236 L7.98740954,19.1630463 L13.6591301,19.1630463 C13.7566427,19.1630463 13.9829469,19.0456622 13.9829469,17.9604353 C13.9829469,16.8749228 13.7566427,16.7572236 13.6591301,16.7572236 L13.6591301,16.7572236 Z M13.6591301,13.7748286 L8.98270792,13.7748286 L10.0215527,16.1800507 L13.6591301,16.1800507 C13.7566427,16.1800507 13.9829469,16.0620758 13.9829469,14.9768489 C13.9829469,13.8922127 13.7566427,13.7748286 13.6591301,13.7748286 L13.6591301,13.7748286 Z" id="Fill-2" fill="#44525E"></path>
                            </g>
                        </g>
                    </g>
                </g>
                <g id="Group-11-Copy" transform="translate(17.000000, 31.000000)">
                    <g id="pantheon-site-2">
                        <g id="Group-17">
                            <g id="Rectangle-10">
                                <use fill="#FFFFFF" fill-rule="evenodd" xlink:href="#path-3"></use>
                                <rect stroke="#44525E" stroke-width="4" x="2" y="2" width="52.851728" height="51.2736842" rx="5"></rect>
                            </g>
                            <path d="M0,5.7426191 C0,2.97800481 2.23446755,0.736842105 5.00841312,0.736842105 L51.9915869,0.736842105 C54.7576571,0.736842105 57,2.97554607 57,5.7426191 L57,12 L0,12 L0,5.7426191 Z" id="Rectangle-11" fill="#44525E"></path>
                            <circle id="Oval-Copy" fill="#FFFFFF" cx="6" cy="6" r="2"></circle>
                            <circle id="Oval-Copy-3" fill="#FFFFFF" cx="13" cy="6" r="2"></circle>
                            <g id="Group-12-Copy" transform="translate(22.000000, 15.000000)">
                                <path d="M4.65662976,7.19621988 L0.706712044,7.19621988 L2.01246492,10.2303791 L10.0188239,10.2303791 L1.55325379,0 L4.65662976,7.19621988 Z M12.0299519,25.7830525 L10.7226729,22.7472543 L8.88811761,22.7472543 L8.84965925,22.6565156 L6.31354409,16.7775714 L4.83717039,16.7775714 L7.41220175,22.7472543 L2.71600872,22.7472543 L11.1829523,32.9797194 L8.07866071,25.7830525 L12.0299519,25.7830525 L12.0299519,25.7830525 Z" id="Fill-1" fill="#EACC2F"></path>
                                <path d="M9.37894729,16.1800507 L7.05230683,10.7917049 L1.25551008,10.7917049 C0.812877029,10.7917049 0.568691802,10.7917049 0.368355921,11.4177732 C0.130147856,12.1647405 0.0241844921,13.7231764 0.0241844921,16.4686372 C0.0241844921,19.2141077 0.130147856,20.7722581 0.368355921,21.5190679 C0.568691802,22.1448211 0.812877029,22.1448211 1.25551008,22.1448211 L6.51187853,22.1448211 L3.93511607,16.1770181 L6.05672575,16.1770181 L4.76989939,13.1976852 L5.41251494,13.1976852 L6.69744315,16.1800507 L9.37894729,16.1800507 Z M13.1995854,19.7395891 L8.23663295,19.7395891 L9.27484169,22.1448211 L13.1995854,22.1448211 C13.2973907,22.1448211 13.5230891,22.0280573 13.5230891,20.9434309 C13.5230891,19.8569831 13.2973907,19.7395891 13.1995854,19.7395891 L13.1995854,19.7395891 Z M13.1995854,13.1976852 C13.2973907,13.1976852 13.5230891,13.0793854 13.5230891,11.9947591 C13.5230891,10.9087838 13.2973907,10.7917049 13.1995854,10.7917049 L7.69495267,10.7917049 L8.73316142,13.1976852 L13.1995854,13.1976852 L13.1995854,13.1976852 Z M13.6591301,16.7572236 L6.94824162,16.7572236 L7.98740954,19.1630463 L13.6591301,19.1630463 C13.7566427,19.1630463 13.9829469,19.0456622 13.9829469,17.9604353 C13.9829469,16.8749228 13.7566427,16.7572236 13.6591301,16.7572236 L13.6591301,16.7572236 Z M13.6591301,13.7748286 L8.98270792,13.7748286 L10.0215527,16.1800507 L13.6591301,16.1800507 C13.7566427,16.1800507 13.9829469,16.0620758 13.9829469,14.9768489 C13.9829469,13.8922127 13.7566427,13.7748286 13.6591301,13.7748286 L13.6591301,13.7748286 Z" id="Fill-2" fill="#44525E"></path>
                            </g>
                        </g>
                    </g>
                </g>
            </g>
        </g>
    </g>
</svg>
